X:1
T:William Grismond
M:2/4
L:1/8
K:C
 C| EE DC| G2 EC| D3/2 E/2 CC| C3 C| Cc cc| _B2 AG| F3/2 G/2 AA| G3|\
 E| FE FG| A2 GG| c3/2 A/2 GE|D-C zA,/2-C/2|C-D EE|G-E DC|A-G Gc|A-G|\
A,-C|C-D EE|G-E D3/2 C/2| C3||

